findly-builder/apps/searchassist/src/assets/icons/twoWayArrow.svg

<svg width="16" height="8" viewBox="0 0 16 8" fill="none" xmlns="http://www.w3.org/2000/svg">
<path d="M3.73698 0L0 4L3.73698 8L4.49868 7.18468L2.06207 4.57658H13.9379L11.5013 7.18468L12.263 8L16 4L12.263 0L11.5013 0.815315L13.9379 3.42342H2.06207L4.49868 0.815315L3.73698 0Z" fill="#BDC1C6"/>
</svg>

<svg width="16" height="8" fill="none" xmlns="http://www.w3.org/2000/svg"><path d="M3.737 0 0 4l3.737 4 .762-.815-2.437-2.608h11.876L11.5 7.185l.762.815L16 4l-3.737-4-.762.815 2.437 2.608H2.062L4.5.815 3.737 0Z" fill="#BDC1C6"/></svg>
